img/icon-3.svg

<svg xmlns="http://www.w3.org/2000/svg" width="83.52" height="74.52"><style>.st0{fill:#43a9ff}</style><path class="st0" d="M82.54 7.96l-2.46-1.21 1.02-2.84c.32-.91-.15-1.92-1.06-2.24-.91-.33-1.91.14-2.24 1.05l-1.23 3.44-24.63 6.58L57.62 2.6c.47-.84.17-1.91-.67-2.38-.84-.46-1.91-.17-2.38.67l-7.28 13c-.02.04-.03.07-.05.1l-15.58 4.17L37.29 8.1c.47-.84.17-1.91-.67-2.38-.85-.47-1.91-.17-2.39.67L26.95 19.4s0 .01-.01.02l-15.55 4.15 5.66-10.1c.47-.84.17-1.91-.67-2.38-.85-.47-1.91-.17-2.39.67L6.71 24.77l-.03.06-5.39 1.44c-.93.25-1.47 1.21-1.23 2.15.2.78.91 1.29 1.68 1.29.15 0 .31-.02.46-.06l19.32-5.16v16.07c0 .96.78 1.75 1.75 1.75.96 0 1.75-.79 1.75-1.75v-17l7.67-2.05c.08.06.16.13.25.18l12.8 7.64c.28.17.59.25.89.25.6 0 1.18-.31 1.51-.86.49-.83.22-1.9-.61-2.4l-10.16-6.06 14.84-3.97v11.17c0 .97.79 1.75 1.75 1.75.97 0 1.75-.78 1.75-1.75V15.35l3.12-.83 12.24 7.31c.28.16.59.24.9.24.59 0 1.17-.3 1.5-.85.49-.83.22-1.9-.61-2.4l-9.31-5.56 14.14-3.78 3.32 1.62c.24.12.51.18.76.18.65 0 1.27-.36 1.58-.98.42-.87.06-1.92-.81-2.34M23.96 71.02c-4.38 0-7.95-3.57-7.95-7.94 0-4.38 3.57-7.95 7.95-7.95 4.38 0 7.94 3.57 7.94 7.95 0 4.37-3.56 7.94-7.94 7.94m0-19.39c-6.31 0-11.45 5.14-11.45 11.45 0 6.3 5.14 11.44 11.45 11.44S35.4 69.38 35.4 63.08c0-6.31-5.13-11.45-11.44-11.45"/><path class="st0" d="M22.97 57.02c-1.56 0-2.9.53-3.87 1.53-1.71 1.75-1.69 4.29-1.68 4.57.03.95.8 1.7 1.75 1.7h.03c.96-.02 1.73-.82 1.72-1.78-.01-.37.11-1.47.69-2.06.2-.2.55-.46 1.36-.46.97 0 1.75-.79 1.75-1.75 0-.97-.78-1.75-1.75-1.75m1.43-6.38c.97 0 1.75-.78 1.75-1.75v-2.21a2.89 2.89 0 0 0-2.88-2.89c-1.59 0-2.89 1.3-2.89 2.89v2.21c0 .97.78 1.75 1.75 1.75zm29.56 17.49c-6.4 0-11.6-5.2-11.6-11.6 0-6.4 5.2-11.61 11.6-11.61 6.4 0 11.61 5.21 11.61 11.61 0 6.4-5.21 11.6-11.61 11.6m0-26.71c-8.33 0-15.1 6.78-15.1 15.11 0 8.33 6.77 15.1 15.1 15.1s15.11-6.77 15.11-15.1-6.78-15.11-15.11-15.11"/><path class="st0" d="M52.61 48.84c-1.97 0-3.66.66-4.87 1.91-2.16 2.22-2.13 5.46-2.12 5.82.02.96.8 1.71 1.75 1.71h.04c.97-.03 1.73-.84 1.71-1.8-.01-.02-.01-2.12 1.13-3.29.55-.57 1.33-.85 2.36-.85.96 0 1.75-.78 1.75-1.75s-.79-1.75-1.75-1.75m2.92-10.1c.97 0 1.75-.79 1.75-1.75v-3.05c0-1.83-1.49-3.32-3.32-3.32-1.83 0-3.31 1.49-3.31 3.32v3.05c0 .96.78 1.75 1.75 1.75z"/></svg>

<svg xmlns="http://www.w3.org/2000/svg" width="83.52" height="74.52" viewBox="0 0 83.52 74.52">
	<style type="text/css">
		.st0{fill:#43a9ff;}
	</style>
	<path class="st0" d="M82.54,7.96L80.08,6.75L81.1,3.91C81.42,3 80.95,1.99 80.04,1.67C79.13,1.34 78.13,1.81 77.8,2.72L76.57,6.16L51.94,12.74L57.62,2.6C58.09,1.76 57.79,0.69 56.95,0.22C56.11,-0.24 55.04,0.05 54.57,0.89L47.29,13.89C47.27,13.93 47.26,13.96 47.24,13.99L31.66,18.16L37.29,8.1C37.76,7.26 37.46,6.19 36.62,5.72C35.77,5.25 34.71,5.55 34.23,6.39L26.95,19.4C26.95,19.4 26.95,19.41 26.94,19.42L11.39,23.57L17.05,13.47C17.52,12.63 17.22,11.56 16.38,11.09C15.53,10.62 14.47,10.92 13.99,11.76L6.71,24.77C6.7,24.79 6.69,24.81 6.68,24.83L1.29,26.27C0.36,26.52 -0.18,27.48 0.06,28.42C0.26,29.2 0.97,29.71 1.74,29.71C1.89,29.71 2.05,29.69 2.2,29.65L21.52,24.49L21.52,40.56C21.52,41.52 22.3,42.31 23.27,42.31C24.23,42.31 25.02,41.52 25.02,40.56L25.02,23.56L32.69,21.51C32.77,21.57 32.85,21.64 32.94,21.69L45.74,29.33C46.02,29.5 46.33,29.58 46.63,29.58C47.23,29.58 47.81,29.27 48.14,28.72C48.63,27.89 48.36,26.82 47.53,26.32L37.37,20.26L52.21,16.29L52.21,27.46C52.21,28.43 53,29.21 53.96,29.21C54.93,29.21 55.71,28.43 55.71,27.46L55.71,15.35L58.83,14.52L71.07,21.83C71.35,21.99 71.66,22.07 71.97,22.07C72.56,22.07 73.14,21.77 73.47,21.22C73.96,20.39 73.69,19.32 72.86,18.82L63.55,13.26L77.69,9.48L81.01,11.1C81.25,11.22 81.52,11.28 81.77,11.28C82.42,11.28 83.04,10.92 83.35,10.3C83.77,9.43 83.41,8.38 82.54,7.96"></path>
	<path class="st0" d="M23.96,71.02C19.58,71.02 16.01,67.45 16.01,63.08C16.01,58.7 19.58,55.13 23.96,55.13C28.34,55.13 31.9,58.7 31.9,63.08C31.9,67.45 28.34,71.02 23.96,71.02M23.96,51.63C17.65,51.63 12.51,56.77 12.51,63.08C12.51,69.38 17.65,74.52 23.96,74.52C30.27,74.52 35.4,69.38 35.4,63.08C35.4,56.77 30.27,51.63 23.96,51.63"></path>
	<path class="st0" d="M22.97,57.02C21.41,57.02 20.07,57.55 19.1,58.55C17.39,60.3 17.41,62.84 17.42,63.12C17.45,64.07 18.22,64.82 19.17,64.82C19.18,64.82 19.19,64.82 19.2,64.82C20.16,64.8 20.93,64 20.92,63.04C20.91,62.67 21.03,61.57 21.61,60.98C21.81,60.78 22.16,60.52 22.97,60.52C23.94,60.52 24.72,59.73 24.72,58.77C24.72,57.8 23.94,57.02 22.97,57.02"></path>
	<path class="st0" d="M24.4,50.64C25.37,50.64 26.15,49.86 26.15,48.89L26.15,46.68C26.15,45.09 24.86,43.79 23.27,43.79C21.68,43.79 20.38,45.09 20.38,46.68L20.38,48.89C20.38,49.86 21.16,50.64 22.13,50.64Z"></path>
	<path class="st0" d="M53.96,68.13C47.56,68.13 42.36,62.93 42.36,56.53C42.36,50.13 47.56,44.92 53.96,44.92C60.36,44.92 65.57,50.13 65.57,56.53C65.57,62.93 60.36,68.13 53.96,68.13M53.96,41.42C45.63,41.42 38.86,48.2 38.86,56.53C38.86,64.86 45.63,71.63 53.96,71.63C62.29,71.63 69.07,64.86 69.07,56.53C69.07,48.2 62.29,41.42 53.96,41.42"></path>
	<path class="st0" d="M52.61,48.84C50.64,48.84 48.95,49.5 47.74,50.75C45.58,52.97 45.61,56.21 45.62,56.57C45.64,57.53 46.42,58.28 47.37,58.28C47.38,58.28 47.4,58.28 47.41,58.28C48.38,58.25 49.14,57.44 49.12,56.48C49.11,56.46 49.11,54.36 50.25,53.19C50.8,52.62 51.58,52.34 52.61,52.34C53.57,52.34 54.36,51.56 54.36,50.59C54.36,49.62 53.57,48.84 52.61,48.84"></path>
	<path class="st0" d="M55.53,38.74C56.5,38.74 57.28,37.95 57.28,36.99L57.28,33.94C57.28,32.11 55.79,30.62 53.96,30.62C52.13,30.62 50.65,32.11 50.65,33.94L50.65,36.99C50.65,37.95 51.43,38.74 52.4,38.74Z"></path>
</svg>
